T: Cliff's Edge
M: 4/4
L: 1/8
K: Dmaj
Adcd AFDF | E^DEG B2 e=d | cded cAGE | F^EFG A2 F^G |Adcd AFDF | E^DEG B2 e=d | cege cAge | d2 D2 D2 :|^decA GEge | ^efdA F2 af | gecA ^GA=GE | DE^EF d2 cd |^decA GEge | ^efdA a2 ba | gecA ^GA=ge | d2 D2 D2 :|
